src/assets/icons/ssl.svg

<svg width="24" height="24" viewBox="0 0 24 24" fill="none" xmlns="http://www.w3.org/2000/svg" class="color-blue-gray-80"><path d="M13.9951 11C13.9951 11.8374 13.4804 12.5545 12.75 12.8523L12.75 15.25C12.75 15.6642 12.4142 16 12 16C11.5858 16 11.25 15.6642 11.25 15.25L11.25 12.8559C10.515 12.5603 9.99603 11.8408 9.99603 11C9.99603 9.89568 10.8913 9.00046 11.9956 9.00046C13.0999 9.00046 13.9951 9.89568 13.9951 11Z" fill="currentColor"></path><path fill-rule="evenodd" clip-rule="evenodd" d="M3.75 5C3.33579 5 3 5.33579 3 5.75V11C3 16.0012 5.95756 19.6757 11.7251 21.9478C11.9018 22.0174 12.0982 22.0174 12.2749 21.9478C18.0424 19.6757 21 16.0012 21 11V5.75C21 5.33579 20.6642 5 20.25 5C17.5866 5 14.992 4.05652 12.45 2.15C12.1833 1.95 11.8167 1.95 11.55 2.15C9.00797 4.05652 6.41341 5 3.75 5ZM4.5 11V6.47793C7.07735 6.32585 9.58084 5.38829 12 3.67782C14.4192 5.38829 16.9227 6.32585 19.5 6.47793V11C19.5 15.2556 17.0466 18.3789 12 20.4419C6.95337 18.3789 4.5 15.2556 4.5 11Z" fill="currentColor"></path></svg>

<svg xmlns="http://www.w3.org/2000/svg" width="24" height="24" fill="none" class="color-blue-gray-80"><path fill="currentColor" d="M13.995 11a2 2 0 0 1-1.245 1.852v2.398a.75.75 0 0 1-1.5 0v-2.394A2 2 0 1 1 13.995 11Z"/><path fill="currentColor" fill-rule="evenodd" d="M3.75 5a.75.75 0 0 0-.75.75V11c0 5.001 2.958 8.676 8.725 10.948a.75.75 0 0 0 .55 0C18.042 19.676 21 16 21 11V5.75a.75.75 0 0 0-.75-.75c-2.663 0-5.258-.943-7.8-2.85a.75.75 0 0 0-.9 0C9.008 4.057 6.413 5 3.75 5Zm.75 6V6.478c2.577-.152 5.08-1.09 7.5-2.8 2.42 1.71 4.923 2.648 7.5 2.8V11c0 4.256-2.453 7.379-7.5 9.442C6.953 18.379 4.5 15.256 4.5 11Z" clip-rule="evenodd"/></svg>
